X: 20653
T: BRUACHAN LOCH NEISH
T: "the BANKS OF LOCH NESS."
O: Gaelic air.
Q: "Slow strathspey time."
%R: strathspey
B: W. Hamilton "Universal Tune-Book" Vol. 2 Glasgow 1846 p.65 #3
S: http://s3-eu-west-1.amazonaws.com/itma.dl.printmaterial/book_pdfs/hamiltonvol2web.pdf
Z: 2016 John Chambers <jc:trillian.mit.edu>
M: C
L: 1/16
K: Gm
% - - - - - - - - - - - - - - - - - - - - - - - - -
F2 |\
DG3G3A B3cd4 | FF3F3D F4FB3 |\
GG3G3A B3cdf3 | dcBA d3^F G4G2 :|\
f2 |\
d3Bf3B g3Bd3f | FF3F3D F4F3f |
d3fB3d c3Bcd3 | GG3G3^F G4G2f2 |\
d3Bf3B g3Bf3e | d3Bc3A B3GF2D2 |\
b3ag3f d2b2a2B2 | A2e2d2^F2 G4G2 |]
% - - - - - - - - - - - - - - - - - - - - - - - - -

%%sep 1 1 500
%%sep 1 1 500

